X: 21
T: No_29_Song_Concerning_a_Visit_to_Other_Pueblos.krn
N: Derived from No_29_Song_Concerning_a_Visit_to_Other_Pueblos.krn
%%abc-version 2.0
%%abcx-abcm2ps-target-version 5.9.1 (29 Sep 2008)
%%abc-creator hum2abc beta
%%abcx-conversion-date 2019/03/15 08:25:35
%%humdrum-veritas 431968799
%%humdrum-veritas-data 2911953976
%%linebreak <none>
%%barnumbers 0
L: 1/8
M: 2/4
K: C clef=bass
[K:clef=bass][M:2/4]G,/G,/E, G,/G,/E, | 
E,E, E,E, ]|:  
E/E3/ F/E/E/D/ | 
D/A,3/ C/A,/A,/G,/ | 
A,/G,E,/ E,E, | 
E,G, A,/E,3/ | 
E,/C,/E, E, z | 
G,G, C/A,G,/ | 
E,E, E,E, | 
G,/G,3/ (3C/A,/A,/ G,/E,/ | 
G,G, (3A,A,G, | 
E,E, E,G, | 
G,G, E, z | 
E,/E,3/ E,E, | 
G,G, C/A,G,/ | 
E,E, E,E,/ z/ | 
G,/G,3/ (3C/A,/A,/ G,/E,/ | 
G, z (3A,A,G, | 
E,E, E,G, | 
G,G, E, z | 
C,/E,3/ E,E, | 
G,G, A,/G,G,/ | 
C/A,/G,/E,/ E,G, | 
G,E,/E,/ C,E, | 
E,E, G,//E,3//G,3//G,// | 
[M:3/8]E, z E, | 
[M:2/4]A,/A,/G, G,A, | 
(3A,G,E, E,/E,/G, | 
[M:3/4]G,/E,E,/ G,/E,/E,3//E,//G,2 | 
G,/G,/E, G,G, E, z | 
[M:2/4]E,/E,3/ E,E, :|]  



